X: 1
T: Mangaster Voe
C: Tom Anderson
B: Tom Anderson Collection I
R: march
Z: 2014 John Chambers <jc:trillian.mit.edu>
S: page from Concord Slow Scottish Session collection "Arr. \251 B. McOwen, April 1996"
M: C|
L: 1/8
K: A
ed |\
"A"c2e2 "A7"A3e | "D"fdAf "A"e3d | "A"c2A2 "F#m"dcBA | "B7"c2B2 "E7"B2ed |\
"A"c2e2 "A7"A3e | "D"fdAF D3F | "A"E2A2 "E7"GBed | "A"c2A2 A2 :|
cd |\
"A"e3c "A7"a3e | "D"fdaf "A"e3d | "A"c2A2 "F#m"dcBA | "B7"c2B2 "E7"B2cd |\
"A"e3c "A7"a3e | "D"fdAf "A"e3d | "A"ceae "E7"dBed | "A"c2A2 A2 |]
cd |\
"A"e3c "A7"a3e | "D"fdaf "A"e3d | "A"c2A2 "F#m"dcBA | "B7"c2B2 "E7"B2ed |\
"A"c2e2 "A7"A3A | "D"fdAF D3F | "A"E2A2 "E7"GBed | "A"c2A2 A2 |]
